Yaru++/actions/16/distribute-unclump.svg

<svg viewBox="0 0 24 24" xmlns="http://www.w3.org/2000/svg"><path d="m4 5v15h4v-1-13-1zm11 0v4h5v-4zm-6 1v1h5v-1zm8 4v5h1v-5zm-2 6v4h5v-4zm-6 2v1h5v-1z" fill="#808080"/></svg>

<svg xmlns="http://www.w3.org/2000/svg" viewBox="0 0 24 24">
 <defs>
  <style id="current-color-scheme" type="text/css">
   .ColorScheme-Text { color:#808080; }
  </style>
 </defs>
 <path style="fill:currentColor" class="ColorScheme-Text" d="M 4 5 L 4 20 L 8 20 L 8 19 L 8 6 L 8 5 L 4 5 z M 15 5 L 15 9 L 20 9 L 20 5 L 15 5 z M 9 6 L 9 7 L 14 7 L 14 6 L 9 6 z M 17 10 L 17 15 L 18 15 L 18 10 L 17 10 z M 15 16 L 15 20 L 20 20 L 20 16 L 15 16 z M 9 18 L 9 19 L 14 19 L 14 18 L 9 18 z"/>
</svg>
